X:2
T:The Minstrel Boy
M:C|
K:D
[A2A,2] || D3 E GFED | F2 A2 d2 cd| B2 A2 FGAF| E3 E D2 [A2A,2]|
D3 E GFED| F2 A2 d2 cd|B2 A2 FGAF|E4 D2 z2|
d2 c2 B2 de|cc B2 A3 A|B2 F F2 A2|B2 c2 d2 d2|
D3 E GFED|F2 A2 d2 cd|B2 A2 FGAF|E3 E D2 |>|
